data/reddit-sans.svg

<svg width="74.02" height="18.184" viewBox="0 0 74.02 18.184" xmlns="http://www.w3.org/2000/svg"><path transform="translate(0 14.137) scale(.0068359 -.0068359)" d="m290 598v156h304q90 0 157.5 34.5t105 98 37.5 149.5q0 129-85.5 201.5t-226.5 72.5h-292v164h320q132 0 237-50.5t166-145 61-226.5q0-126-59.5-229t-170-164-262.5-61zm-118-598v1474h180v-1474zm808 0-394 626 140 108 462-734z"/><path transform="translate(8.6406 14.137) scale(.0068359 -.0068359)" d="m592-16q-149 0-264.5 67.5t-181.5 190.5-66 290q0 166 64 288t174.5 189 249.5 67q137 0 242-62.5t164.5-172.5 59.5-251q0-43-4.5-77t-7.5-51h-812v140h656q0 86-36 157.5t-103 114-159 42.5q-94 0-166-48t-113-134.5-41-201.5q0-116 43-203.5t122-136 187-48.5q64 0 116.5 16.5t93 41 68.5 48.5l66-156q-61-45-152.5-77.5t-199.5-32.5z"/><path transform="translate(16.311 14.137) scale(.0068359 -.0068359)" d="m1088-16q-61 29-98 60t-53.5 68-16.5 84l48-24h-98l54 118v534l-50 106h22v610h172v-1246q0-66 17-98t69-56zm-530 0q-97 0-183.5 38.5t-153 110.5-104.5 173-37 226q-1 168 65 290.5t175 189 238 66.5q133 0 236.5-69t163-192 60.5-285q-1-159-60.5-283t-163-194.5-236.5-70.5zm30 156q94 0 167.5 51.5t116 140 42.5 200.5q0 121-44.5 208.5t-118.5 134.5-163 47q-97 0-172.5-49.5t-118-137.5-41.5-203q-1-112 41.5-200.5t118-140 172.5-51.5z"/><path transform="translate(24.773 14.137) scale(.0068359 -.0068359)" d="m1088-16q-61 29-98 60t-53.5 68-16.5 84l48-24h-98l54 118v534l-50 106h22v610h172v-1246q0-66 17-98t69-56zm-530 0q-97 0-183.5 38.5t-153 110.5-104.5 173-37 226q-1 168 65 290.5t175 189 238 66.5q133 0 236.5-69t163-192 60.5-285q-1-159-60.5-283t-163-194.5-236.5-70.5zm30 156q94 0 167.5 51.5t116 140 42.5 200.5q0 121-44.5 208.5t-118.5 134.5-163 47q-97 0-172.5-49.5t-118-137.5-41.5-203q-1-112 41.5-200.5t118-140 172.5-51.5z"/><path transform="translate(33.236 14.137) scale(.0068359 -.0068359)" d="m146 0v1060h172v-1060zm86 1230q-55 0-92.5 38t-37.5 92 37.5 92 92.5 38q54 0 92-38t38-92-38-92-92-38z"/><path transform="translate(36.395 14.137) scale(.0068359 -.0068359)" d="m542-16q-150 0-226 87t-76 223v1106h172v-1088q0-82 37-125t97-43q26 0 47 7.5t39 16.5l66-152q-30-12-68-22t-88-10zm-478 920v156h610v-156z"/><path transform="translate(44.967 14.137) scale(.0068359 -.0068359)" d="m582-16q-117 0-215 48t-167 125-98 163l168 70q21-64 64.5-119t106-89 139.5-34q72 0 134 31.5t100 87 38 127.5q0 74-37.5 125.5t-92.5 85.5-109.5 54.5-88.5 32.5q-97 34-183 89t-139.5 138-53.5 201q0 112 51 195t143 129 214 46q113 0 197.5-37t142-97 88.5-128l-160-64q-19 35-55 72.5t-89 63.5-122 26q-93 0-163.5-53t-70.5-157q0-64 27.5-110t71.5-78.5 92.5-54.5 90.5-37q47-16 117.5-44.5t140-77 117-124.5 47.5-188q0-126-62.5-220t-164.5-146-219-52z"/><path transform="translate(52.746 14.137) scale(.0068359 -.0068359)" d="m436-16q-98 0-177 38t-125 108.5-46 169.5q0 105 57 179t165 112.5 262 38.5h220v-138h-208q-157 0-242.5-50t-85.5-142q0-53 27-90.5t72.5-57.5 100.5-20q66 0 136.5 29.5t119 86 48.5 138.5v110l-4 62v118q0 26-4 66.5t-23.5 80.5-65.5 67.5-129 27.5q-49 0-105.5-12.5t-110-34.5-94.5-51l-66 154q53 31 118.5 54.5t136 36.5 137.5 13q108 0 179.5-32t113.5-88 59.5-127.5 17.5-150.5v-372q0-67 14.5-106t51.5-54l20-8-66-156-28 12q-56 24-96 71t-40 93l34-12h-66l44 28q-39-79-132.5-135.5t-219.5-56.5z"/><path transform="translate(60.143 14.137) scale(.0068359 -.0068359)" d="m138 0v1060h172v-130h40l-74-74q27 72 80 121t125 74 155 25q134 0 216.5-59t120-150 37.5-187v-680h-172v644q0 135-66.5 203.5t-183.5 68.5q-78 0-141-31.5t-100-92-37-148.5v-644z"/><path transform="translate(67.949 14.137) scale(.0068359 -.0068359)" d="m444-16q-94 0-170.5 35.5t-128.5 92-73 118.5l156 64q21-60 80.5-105t135.5-45q48 0 91 18.5t70 52 27 79.5q0 45-25 76.5t-64 53.5-81.5 37-77.5 27q-60 20-126 53.5t-112 92-46 152.5q0 93 47 158t123 98.5 162 33.5q129 0 214.5-65.5t121.5-146.5l-156-66q-24 47-66.5 84.5t-113.5 37.5q-64 0-114-34.5t-50-99.5q0-55 35-88t84.5-53 94.5-35q41-13 95-35t105-57 84.5-88 33.5-130q0-92-49.5-163.5t-130.5-112-176-40.5z"/></svg>

<?xml version="1.0" encoding="utf-8" ?>
<svg baseProfile="tiny" height="100%" version="1.2" width="100%" xmlns="http://www.w3.org/2000/svg" xmlns:ev="http://www.w3.org/2001/xml-events" xmlns:xlink="http://www.w3.org/1999/xlink"><defs /><g><path d="M290 598V754H594Q684 754 751.5 788.5Q819 823 856.5 886.5Q894 950 894 1036Q894 1165 808.5 1237.5Q723 1310 582 1310H290V1474H610Q742 1474 847.0 1423.5Q952 1373 1013.0 1278.5Q1074 1184 1074 1052Q1074 926 1014.5 823.0Q955 720 844.5 659.0Q734 598 582 598ZM172 0V1474H352V0ZM980 0 586 626 726 734 1188 0Z" transform="translate(0.0, 72) scale(0.03515625, -0.03515625)" /><path d="M592 -16Q443 -16 327.5 51.5Q212 119 146.0 242.0Q80 365 80 532Q80 698 144.0 820.0Q208 942 318.5 1009.0Q429 1076 568 1076Q705 1076 810.0 1013.5Q915 951 974.5 841.0Q1034 731 1034 590Q1034 547 1029.5 513.0Q1025 479 1022 462H210V602H866Q866 688 830.0 759.5Q794 831 727.0 873.5Q660 916 568 916Q474 916 402.0 868.0Q330 820 289.0 733.5Q248 647 248 532Q248 416 291.0 328.5Q334 241 413.0 192.5Q492 144 600 144Q664 144 716.5 160.5Q769 177 809.5 201.5Q850 226 878 250L944 94Q883 49 791.5 16.5Q700 -16 592 -16Z" transform="translate(44.4375, 72) scale(0.03515625, -0.03515625)" /><path d="M1088 -16Q1027 13 990.0 44.0Q953 75 936.5 112.0Q920 149 920 196L968 172H870L924 290V824L874 930H896V1540H1068V294Q1068 228 1085.0 196.0Q1102 164 1154 140ZM558 -16Q461 -16 374.5 22.5Q288 61 221.5 133.0Q155 205 117.0 306.0Q79 407 80 532Q79 700 145.0 822.5Q211 945 320.0 1011.5Q429 1078 558 1078Q691 1078 794.5 1009.0Q898 940 957.5 817.0Q1017 694 1018 532Q1017 373 957.5 249.0Q898 125 794.5 54.5Q691 -16 558 -16ZM588 140Q682 140 755.5 191.5Q829 243 871.5 331.5Q914 420 914 532Q914 653 869.5 740.5Q825 828 751.0 875.0Q677 922 588 922Q491 922 415.5 872.5Q340 823 297.5 735.0Q255 647 256 532Q255 420 297.5 331.5Q340 243 415.5 191.5Q491 140 588 140Z" transform="translate(83.8828125, 72) scale(0.03515625, -0.03515625)" /><path d="M1088 -16Q1027 13 990.0 44.0Q953 75 936.5 112.0Q920 149 920 196L968 172H870L924 290V824L874 930H896V1540H1068V294Q1068 228 1085.0 196.0Q1102 164 1154 140ZM558 -16Q461 -16 374.5 22.5Q288 61 221.5 133.0Q155 205 117.0 306.0Q79 407 80 532Q79 700 145.0 822.5Q211 945 320.0 1011.5Q429 1078 558 1078Q691 1078 794.5 1009.0Q898 940 957.5 817.0Q1017 694 1018 532Q1017 373 957.5 249.0Q898 125 794.5 54.5Q691 -16 558 -16ZM588 140Q682 140 755.5 191.5Q829 243 871.5 331.5Q914 420 914 532Q914 653 869.5 740.5Q825 828 751.0 875.0Q677 922 588 922Q491 922 415.5 872.5Q340 823 297.5 735.0Q255 647 256 532Q255 420 297.5 331.5Q340 243 415.5 191.5Q491 140 588 140Z" transform="translate(127.40625, 72) scale(0.03515625, -0.03515625)" /><path d="M146 0V1060H318V0ZM232 1230Q177 1230 139.5 1268.0Q102 1306 102 1360Q102 1414 139.5 1452.0Q177 1490 232 1490Q286 1490 324.0 1452.0Q362 1414 362 1360Q362 1306 324.0 1268.0Q286 1230 232 1230Z" transform="translate(170.9296875, 72) scale(0.03515625, -0.03515625)" /><path d="M542 -16Q392 -16 316.0 71.0Q240 158 240 294V1400H412V312Q412 230 449.0 187.0Q486 144 546 144Q572 144 593.0 151.5Q614 159 632 168L698 16Q668 4 630.0 -6.0Q592 -16 542 -16ZM64 904V1060H674V904Z" transform="translate(187.171875, 72) scale(0.03515625, -0.03515625)" /><path d="M582 -16Q465 -16 367.0 32.0Q269 80 200.0 157.0Q131 234 102 320L270 390Q291 326 334.5 271.0Q378 216 440.5 182.0Q503 148 580 148Q652 148 714.0 179.5Q776 211 814.0 266.5Q852 322 852 394Q852 468 814.5 519.5Q777 571 722.0 605.0Q667 639 612.5 659.5Q558 680 524 692Q427 726 341.0 781.0Q255 836 201.5 919.0Q148 1002 148 1120Q148 1232 199.0 1315.0Q250 1398 342.0 1444.0Q434 1490 556 1490Q669 1490 753.5 1453.0Q838 1416 895.5 1356.0Q953 1296 984 1228L824 1164Q805 1199 769.0 1236.5Q733 1274 680.0 1300.0Q627 1326 558 1326Q465 1326 394.5 1273.0Q324 1220 324 1116Q324 1052 351.5 1006.0Q379 960 423.0 927.5Q467 895 515.5 873.0Q564 851 606 836Q653 820 723.5 791.5Q794 763 863.5 714.5Q933 666 980.5 590.0Q1028 514 1028 402Q1028 276 965.5 182.0Q903 88 801.0 36.0Q699 -16 582 -16Z" transform="translate(231.2578125, 72) scale(0.03515625, -0.03515625)" /><path d="M436 -16Q338 -16 259.0 22.0Q180 60 134.0 130.5Q88 201 88 300Q88 405 145.0 479.0Q202 553 310.0 591.5Q418 630 572 630H792V492H584Q427 492 341.5 442.0Q256 392 256 300Q256 247 283.0 209.5Q310 172 355.5 152.0Q401 132 456 132Q522 132 592.5 161.5Q663 191 711.5 247.5Q760 304 760 386V496L756 558V676Q756 702 752.0 742.5Q748 783 728.5 823.0Q709 863 663.0 890.5Q617 918 534 918Q485 918 428.5 905.5Q372 893 318.5 871.0Q265 849 224 820L158 974Q211 1005 276.5 1028.5Q342 1052 412.5 1065.0Q483 1078 550 1078Q658 1078 729.5 1046.0Q801 1014 843.0 958.0Q885 902 902.5 830.5Q920 759 920 680V308Q920 241 934.5 202.0Q949 163 986 148L1006 140L940 -16L912 -4Q856 20 816.0 67.0Q776 114 776 160L810 148H744L788 176Q749 97 655.5 40.5Q562 -16 436 -16Z" transform="translate(271.265625, 72) scale(0.03515625, -0.03515625)" /><path d="M138 0V1060H310V930H350L276 856Q303 928 356.0 977.0Q409 1026 481.0 1051.0Q553 1076 636 1076Q770 1076 852.5 1017.0Q935 958 972.5 867.0Q1010 776 1010 680V0H838V644Q838 779 771.5 847.5Q705 916 588 916Q510 916 447.0 884.5Q384 853 347.0 792.5Q310 732 310 644V0Z" transform="translate(309.3046875, 72) scale(0.03515625, -0.03515625)" /><path d="M444 -16Q350 -16 273.5 19.5Q197 55 145.0 111.5Q93 168 72 230L228 294Q249 234 308.5 189.0Q368 144 444 144Q492 144 535.0 162.5Q578 181 605.0 214.5Q632 248 632 294Q632 339 607.0 370.5Q582 402 543.0 424.0Q504 446 461.5 461.0Q419 476 384 488Q324 508 258.0 541.5Q192 575 146.0 633.5Q100 692 100 786Q100 879 147.0 944.0Q194 1009 270.0 1042.5Q346 1076 432 1076Q561 1076 646.5 1010.5Q732 945 768 864L612 798Q588 845 545.5 882.5Q503 920 432 920Q368 920 318.0 885.5Q268 851 268 786Q268 731 303.0 698.0Q338 665 387.5 645.0Q437 625 482 610Q523 597 577.0 575.0Q631 553 682.0 518.0Q733 483 766.5 430.0Q800 377 800 300Q800 208 750.5 136.5Q701 65 620.0 24.5Q539 -16 444 -16Z" transform="translate(349.453125, 72) scale(0.03515625, -0.03515625)" /></g></svg>
